!!!!SEGMENT: pl-wtm--r-1175--002_lessel-franciszek--quartetto-no-6-andante.krn
!!!cenid: 18xx:1626
!!!COM: Lessel, Franciszek
!!!COM-rismid: pe30004332
!!!CDT: 1780-1838/12/26
!!!CNT: Polish
!!!OPR: Quartetto No 6
!!!OTL: Andante
!!!OMV: 002
!!!PDT:
!!!AGN: Secular; String quartet
!!!SMS-siglum: PL-Wtm
!!!SMS-shelfmark: R 1175
!!!SMS-shelfwork: 001-002 M
!!!SMS-variant:
!!!SMS-altvar:
!!!NIFC-rismid: 1001085812
!!!URL-scan: http://repozytorium.nifc.pl/skany/pl-wtm-nut--r1175
!!!ONB-nifc: UWAGA: części Kwartetu: 1. Allegro di molto (łącznie z początkowym Adagio), 2. Andante, 3. Menuetto, 4. Fuga
**kern	**dynam
*Iviola	*
*I"Viola	*
*I'vla	*
*clefG2	*
*k[f#c#g#]	*
*f#:	*
*M6/8	*
!LO:TX:a:B:t=Andante\nCantabile	!
8r	.
=1	=1
!	!LO:DY:t=po
4b\	p
8b\	.
4b\	.
8b\	.
=2	=2
4b\	<
8b\	.
4b\	[
8b\	.
=3	=3
4cc#\	fp.
8cc#\	.
4cc#\	.
8cc#\	.
!!LO:LB:g=original
=4	=4
4cc#\	.
8cc#\	.
4dd\	.
8ddd\	.
=5	=5
!	!LO:DY:t=po
[4.ddd\	p
4ddd\]	.
8ddd\	.
=6	=6
4.ddd\	.
4ddd\	.
8gg#\	.
=7	=7
!	!LO:DY:t=mf.
(16gg#\LL	mf
16ff#\	.
16ee\	.
16dd\	.
16ee\	.
16ff#\JJ)	.
4gg#\	.
8bb\	.
!!LO:LB:g=original
=8	=8
8.ccc#\L	.
*Xtuplet	*
*rscale:2	*
(48aa\LL	.
48bb\	.
48gg#\JJJ)	.
*rscale:1	*
(8gg#\L	.
8ff#\J)	.
4cc#\	.
=9	=9
!	!LO:DY:t=po
4d/	p
8d/	.
4d/	.
8d/	.
=10	=10
4d/	<
8d/	.
4d/	.
8d/	.
=11	=11
4c#/	.
8c#/	.
4e/	.
8e/	.
!!LO:LB:g=original
=12	=12
!	!LO:DY:rj
[4.f#/	fz
8f#/L]	.
8g#/J	.
[8dd\	.
=13	=13
4dd\]	.
8dd\	.
4dd\	.
8r	.
=14	=14
4dd\	.
8dd\	.
4dd\	.
8r	.
=15	=15
4ddd\	.
8ddd\	.
4ddd\	.
8dd\	.
!!LO:LB:g=original
=16	=16
12ee\L	.
12cc#\	.
12a\J	.
(8f#/L	.
8g#/J)	.
4cc#\	.
=17	=17
4r	.
8r	.
8.gg#\L	.
16ff#\L	.
16ee\	.
16dd\JJ	.
=18	=18
8dd\L	.
8dd\	.
8dd\J	.
16r	.
16dd\	.
32gg#\LLL	.
32ff#\	.
32ee\	.
32dd\	.
32cc#\	.
32b\	.
32a\	.
32g#\JJJ	.
!!LO:LB:g=original
=19	=19
4cc#\	.
8r	.
8.gg#\L	.
16ff#\L	.
16ee\	.
16dd\JJ	.
=20	=20
8dd\L	.
8dd\	.
8dd\J	.
(8ee\L	.
8a\)	.
8a'\J	.
=21	=21
8a\L	.
8ff#\	.
8ff#\J	.
8ee\L	.
8ee\	.
8ee\J	.
=22	=22
4.dd\	<
8dd\L	.
8dd\	.
8dd\J	.
!!LO:LB:g=original
=23	=23
!	!LO:DY:rj:t=fo.
16dd\LL 16fn\	f
16dd\ 16f\	.
16dd\ 16f\	.
16dd\ 16f\	.
16dd\ 16f\	.
16dd\JJ 16f\	.
(8dd\L 8f\	.
!	!LO:HP:t=dimin .
8dd\)	>
8dd'\J	.
=24	=24
8.dd\L	.
16dd\L	.
16cc#X\	.
16dd\JJ	.
(8dd\L	>
8cc#X\)	.
8cc#'\J	]
=25	=25
!	!LO:DY:t=po
(8dd\L	p
8a\)	.
8a'\J	.
8.f#/L	rf
16g#/K	.
8a/J	.
!!LO:LB:g=original
=26	=26
(4.b\	.
8a\)	.
8r	.
8ff#\	.
=27	=27
4gg#\	.
8gg#\	.
4ff#\	.
8dd\	.
=28	=28
8cc#X\	.
4a\	.
!LO:TX:t=P:problem:mixed beam	!
8dd\L	.
8d/	.
8f#\J	.
=29	=29
!	!LO:DY:rj:t=fo
4g#/	f
8g#/	.
8.a/L	.
16g#/K	.
8f#/J	.
!!LO:LB:g=original
=30	=30
!LO:TX:t=P:problem:mixed beam	!
(8e/L	.
8ee\)	.
8ee'\J	.
16.ff#\LL	.
32ee\K	.
16dd\JJ	.
16r	.
8aa\	.
=31	=31
8gg#\L	.
8ff#\	.
8ee\J	.
8dd\L	.
8cc#X\	.
8b\J	.
=32	=32
16a/	.
16r	.
16a/	.
16r	.
16a/	<
16r	.
16a/	.
16r	.
16a/	.
16r	.
16a/	.
16r	.
!!LO:LB:g=original
=33	=33
16ccn\	<
16r	.
16cc\	.
16r	[
16cc\	.
!	!LO:DY:t=fo.
16r	f
8dd'\L	.
16dd\Jk 16b'\	.
16r	.
!LO:N:vis=4	!
8ee;\	[[
=34	=34
!LO:N:vis=4	!
8r	.
4cc#\	.
!	!LO:DY:t=po
4g#/	p
8g#/	.
=35	=35
4.f#/	.
4.c#X/	.
=36	=36
8.d/L	.
16e/K	.
8f#/J	.
8.g#/L	.
16a/K	.
8g#/J	.
!!LO:LB:g=original
=37	=37
4.f#/	.
8fn/L	<
8f/	.
8f/J	[[
=38	=38
8e/L	.
8e/	.
8e/J	.
4f#X/	.
8f#/	.
=39	=39
!	!LO:DY:t=po
8g#/	p
8r	.
8g#/L	.
8g#/J	.
8r	.
8g#/	.
=40	=40
(4.g#/	.
4g#/)	.
8g#/	.
!!LO:LB:g=original
=41	=41
8a/	.
8r	.
8a/L	.
8a/J	.
8r	.
8a/	.
=42	=42
(4.a/	.
8g#/)	.
8r	.
8gg#\	.
=43	=43
(8aa\L	>
8gg#\J)	]
8r	.
(8aa\L	>
8gg#\J)	]
8r	.
=44	=44
8aa\L	.
8gg#\	.
8ee\J	.
4cc#\	.
8a#X\	.
!!LO:PB:g=original
=45	=45
4b\	.
8b\	.
4b\	.
8b\	.
=46	=46
8b\	.
8r	.
8b\L	.
8b\J	.
8r	.
8b\	.
=47	=47
8b\	.
8r	.
8b\L	.
8dd\J	.
8r	.
8dd\	.
=48	=48
8gg#\	.
8r	.
8gg#\L	.
8gg#\J	.
8r	.
8gg#\	.
!!LO:LB:g=original
=49	=49
(16cc#\LL	.
16gg#\	.
16cc#\	.
16gg#\	.
16cc#\	.
16gg#\JJ)	.
*tremolo	*
16cc#\LL	.
16gg#\	.
16cc#\	.
16gg#\	.
16cc#\	.
16gg#\JJ	.
=50	=50
16cc#\LL	.
16dd\	.
16cc#\	.
16dd\	.
16\cc#	.
16dd\JJ	.
*Xtremolo	*
(8b\L	.
8dd\J)	.
8r	.
=51	=51
!LO:TX:a:t=1.	!
2.r	.
=52	=52
4r	.
8cc#\	.
4r	.
8gg#\	.
!!LO:LB:g=original
=53	=53
(16gg#\LL	.
16ff#\	.
16ee\	.
16dd\	.
16ee\	.
16ff#\JJ)	.
8.gg#\L	.
16b\L	.
16cc#\	.
16dd\JJ	.
=54	=54
4dd\	.
8dd\	.
4dd\	.
8r	.
=55	=55
!	!LO:DY:rj:t=po.
4d/	p
8d/	.
4d/	.
8d/	.
=56	=56
4d/	.
8d/	.
4d/	.
8d/	.
!!LO:LB:g=original
=57	=57
4c#/	.
8c#/	<
4e/	.
8e/	[
=58	=58
[4.f#/	.
8f#/L]	>
8g#/J	.
8dd\	]
=59	=59
4dd\	.
8dd\	.
4dd\	.
8r	.
=60	=60
8.a/L	.
16b/K	.
8a/J	.
4g#/	.
8r	.
!!LO:LB:g=original
=61	=61
4dd\	<
8dd\	.
4dd\	[
8r	.
=62	=62
8g#/L	fz
8ee/J 8g#/ 8c#'/	.
8r	.
8r	.
!	!LO:DY:t=po
8cc#\L	p
8cc#\J	.
=63	=63
4b\	.
8cc#\	rf
4b\	.
8cc#\	rf
=64	=64
8b\L	.
16b\L	.
16b\	.
16dd\	.
16dd\JJ	.
!!LO:LB:g=original
16ee\LL	.
16ee\	.
16ee\	.
16ee\	.
16ee\	.
16ee\JJ	.
=65	=65
4dd\	.
8r	.
8r	.
8cc#\L	.
8cc#\J	.
=66	=66
8b\	.
16r	.
16gg#'\LL	fz
(16ff#\	.
16aa\JJ)	.
(8gg#\L	.
16dd\L)	.
16gg#'\	fz
16ff#\	.
16aa\JJ	.
=67	=67
8gg#\L	.
8dd\	.
8b\J	.
!!LO:LB:g=original
*rscale:1/2	*
(16ee\LL	.
16dd#X\	.
16ee\	.
16dd#\)	.
*rscale:1	*
16ee\	.
16cc#\JJ	.
!!LO:LB:g=original
=68	=68
(32b\LLL	.
32dd\	.
32gg#\	.
32ff#\	.
32ee\	.
32dd\	.
32cc#\	.
32b\JJJ)	.
(32a/LLL	.
32g#/	.
32f#/	.
32e/JJJ)	.
4d/	.
8f#/	.
=69	=69
8g#/	.
8r	.
8a/	.
4b/	.
8d/	.
!!LO:LB:g=original
=70	=70
8g#/	.
8r	.
[8dd\	.
8dd\L]	.
8b\	.
8b\J	.
=71	=71
4b\	.
8r	.
4r	.
8r	.
!LO:TX:b:t=Men&colon;	!
==	==
*-	*-
!!!EED: Leszek Kubiak
!!!EST: 2021-04-13
!!!ENC: Tomasz Grochalski
!!!END: 2021-03-28
